src/images/jetbrains-logo.svg

<svg width="121" height="131" viewBox="0 0 121 131" fill="none" xmlns="http://www.w3.org/2000/svg">
<path d="M118.623 71.8C119.523 71 120.023 69.9 120.123 68.6C120.223 66 118.323 63.9 115.723 63.7C114.523 63.6 113.323 64.1 112.423 64.8L28.6227 110.7C26.7227 111.5 25.0227 112.9 23.9227 114.8C21.0227 119.6 22.6227 125.8 27.5227 128.7C30.9227 130.7 35.0227 130.5 38.2227 128.5C38.4227 128.3 38.7227 128.2 38.9227 128L116.923 73.2C117.323 72.9 118.423 72.1 118.623 71.8Z" fill="url(#paint0_linear)"/>
<path d="M118.823 65.1L55.0227 2.5C53.6227 1 51.6227 0 49.3227 0C45.0227 0 41.6227 3.5 41.6227 7.7C41.6227 9.8 42.4227 11.6 43.7227 13C44.1227 13.4 44.5227 13.7 44.9227 14L112.323 71.7C113.123 72.4 114.123 72.9 115.323 73C117.923 73.1 120.023 71.2 120.223 68.6C120.223 67.3 119.723 66 118.823 65.1Z" fill="url(#paint1_linear)"/>
<path d="M57.1227 59.5C57.0227 59.5 17.7227 28.5 16.9227 28C16.3227 27.7 15.7227 27.4 15.1227 27.1C9.32269 24.9 2.92269 27.9 0.722689 33.7C-1.17731 38.8 0.922689 44.4 5.32269 47.1C6.02269 47.5 6.62269 47.8 7.32269 48C7.72269 48.2 52.7227 66.8 52.7227 66.8C54.5227 67.6 56.6227 67.1 57.8227 65.6C59.3227 63.7 59.0227 61 57.1227 59.5Z" fill="url(#paint2_linear)"/>
<path d="M49.3226 0C47.6226 0 46.0226 0.6 44.7226 1.5L4.92264 28.3C4.82264 28.4 4.72264 28.4 4.72264 28.5H4.62264C2.92264 29.7 1.52264 31.5 0.722643 33.6C-1.47736 39.4 1.52264 45.9 7.32264 48C10.9226 49.4 14.8226 48.7 17.7226 46.6C18.4226 46.1 19.0226 45.6 19.5226 45L54.1226 13.8C55.9226 12.4 57.1226 10.2 57.1226 7.7C57.1226 3.5 53.6226 0 49.3226 0Z" fill="url(#paint3_linear)"/>
<path d="M85.6227 37.4H34.6227V88.4H85.6227V37.4Z" fill="black"/>
<path d="M58.1227 78.8H39.0227V82H58.1227V78.8Z" fill="white"/>
<path d="M38.8226 50.8L40.3226 49.4C40.7226 49.9 41.1226 50.2 41.6226 50.2C42.2226 50.2 42.5226 49.8 42.5226 49V43.7H44.8226V49C44.8226 50 44.5226 50.8 44.0226 51.3C43.5226 51.8 42.7226 52.1 41.7226 52.1C40.2226 52.2 39.4226 51.6 38.8226 50.8Z" fill="white"/>
<path d="M45.3226 43.8H52.0226V45.7H47.6226V47H51.6226V48.8H47.6226V50.1H52.1226V52.1H45.4226L45.3226 43.8Z" fill="white"/>
<path d="M55.0226 45.8H52.5226V43.8H59.8226V45.8H57.3226V52.1H55.0226V45.8Z" fill="white"/>
<path d="M39.0226 54H43.3226C44.3226 54 45.1226 54.3 45.6226 54.7C45.9226 55 46.1226 55.5 46.1226 56.1C46.1226 57.1 45.6226 57.6 44.8226 58C45.8226 58.3 46.4226 58.9 46.4226 60C46.4226 61.4 45.2226 62.3 43.3226 62.3H39.0226V54ZM43.8226 56.6C43.8226 56.1 43.4226 55.9 42.8226 55.9H41.3226V57.4H42.7226C43.4226 57.3 43.8226 57.1 43.8226 56.6ZM43.0226 59H41.2226V60.5H43.0226C43.7226 60.5 44.1226 60.2 44.1226 59.7C44.1226 59.2 43.7226 59 43.0226 59Z" fill="white"/>
<path d="M46.8226 54H50.7226C52.0226 54 52.8226 54.3 53.4226 54.9C53.9226 55.4 54.1226 56 54.1226 56.8C54.1226 58.1 53.4226 58.9 52.4226 59.4L54.4226 62.3H51.8226L50.1226 59.8H49.1226V62.3H46.8226V54ZM50.6226 58C51.4226 58 51.8226 57.6 51.8226 57C51.8226 56.3 51.3226 56 50.6226 56H49.1226V58H50.6226Z" fill="white"/>
<path d="M56.8227 54H59.0227L62.5227 62.4H60.0227L59.4227 60.9H56.2227L55.6227 62.4H53.2227L56.8227 54ZM58.8227 59L57.9227 56.7L57.0227 59H58.8227Z" fill="white"/>
<path d="M62.8226 54H65.1226V62.3H62.8226V54Z" fill="white"/>
<path d="M65.7227 54H67.8227L71.2227 58.4V54H73.5227V62.3H71.5227L68.0227 57.8V62.4H65.7227V54Z" fill="white"/>
<path d="M73.7227 61.1L75.0227 59.6C75.8227 60.3 76.7227 60.6 77.7227 60.6C78.3227 60.6 78.7227 60.4 78.7227 60C78.7227 59.6 78.4227 59.5 77.3227 59.2C75.5227 58.8 74.2227 58.3 74.2227 56.6C74.2227 55.1 75.4227 53.9 77.4227 53.9C78.8227 53.9 79.9227 54.3 80.8227 55L79.6227 56.6C78.8227 56.1 78.0227 55.8 77.3227 55.8C76.7227 55.8 76.5227 56 76.5227 56.3C76.5227 56.7 76.8227 56.8 77.9227 57.1C79.8227 57.5 81.0227 58.1 81.0227 59.7C81.0227 61.4 79.7227 62.4 77.6227 62.4C76.1227 62.5 74.7227 62 73.7227 61.1Z" fill="white"/>
<defs>
<linearGradient id="paint0_linear" x1="31.8639" y1="120.558" x2="110.263" y2="73.24" gradientUnits="userSpaceOnUse">
<stop stop-color="#FCEE39"/>
<stop offset="1" stop-color="#F37B3D"/>
</linearGradient>
<linearGradient id="paint1_linear" x1="48.3834" y1="6.9083" x2="119.941" y2="69.5546" gradientUnits="userSpaceOnUse">
<stop stop-color="#EF5A6B"/>
<stop offset="0.57" stop-color="#F26F4E"/>
<stop offset="1" stop-color="#F37B3D"/>
</linearGradient>
<linearGradient id="paint2_linear" x1="52.9694" y1="63.6407" x2="10.5606" y2="37.1562" gradientUnits="userSpaceOnUse">
<stop stop-color="#7C59A4"/>
<stop offset="0.3852" stop-color="#AF4C92"/>
<stop offset="0.7654" stop-color="#DC4183"/>
<stop offset="0.957" stop-color="#ED3D7D"/>
</linearGradient>
<linearGradient id="paint3_linear" x1="52.1962" y1="3.7019" x2="10.7932" y2="37.8971" gradientUnits="userSpaceOnUse">
<stop stop-color="#EF5A6B"/>
<stop offset="0.364" stop-color="#EE4E72"/>
<stop offset="1" stop-color="#ED3D7D"/>
</linearGradient>
</defs>
</svg>

<svg fill="none" viewBox="0 0 121 131">
  <path fill="url(#jetbrains1)" d="M118.62 71.8a4.68 4.68 0 00-6.2-7l-83.8 45.9a10.07 10.07 0 00-1.1 18c3.4 2 7.5 1.8 10.7-.2.2-.2.5-.3.7-.5l78-54.8c.4-.3 1.5-1.1 1.7-1.4z"/>
  <path fill="url(#jetbrains2)" d="M118.82 65.1L55.02 2.5A7.7 7.7 0 1043.72 13c.4.4.8.7 1.2 1l67.4 57.7c.8.7 1.8 1.2 3 1.3 2.6.1 4.7-1.8 4.9-4.4a5 5 0 00-1.4-3.5z"/>
  <path fill="url(#jetbrains3)" d="M57.12 59.5c-.1 0-39.4-31-40.2-31.5l-1.8-.9a11.18 11.18 0 00-9.8 20c.7.4 1.3.7 2 .9.4.2 45.4 18.8 45.4 18.8a4.3 4.3 0 004.4-7.3z"/>
  <path fill="url(#jetbrains4)" d="M49.32 0c-1.7 0-3.3.6-4.6 1.5L4.92 28.3c-.1.1-.2.1-.2.2h-.1A11.14 11.14 0 007.32 48c3.6 1.4 7.5.7 10.4-1.4.7-.5 1.3-1 1.8-1.6l34.6-31.2c1.8-1.4 3-3.6 3-6.1 0-4.2-3.5-7.7-7.8-7.7z"/>
  <path fill="#000" d="M85.62 37.4h-51v51h51v-51z"/>
  <path fill="#fff" d="M58.12 78.8h-19.1V82h19.1v-3.2zM38.82 50.8l1.5-1.4c.4.5.8.8 1.3.8.6 0 .9-.4.9-1.2v-5.3h2.3V49c0 1-.3 1.8-.8 2.3-.5.5-1.3.8-2.3.8-1.5.1-2.3-.5-2.9-1.3zM45.32 43.8h6.7v1.9h-4.4V47h4v1.8h-4v1.3h4.5v2h-6.7l-.1-8.3zM55.02 45.8h-2.5v-2h7.3v2h-2.5v6.3h-2.3v-6.3zM39.02 54h4.3c1 0 1.8.3 2.3.7.3.3.5.8.5 1.4 0 1-.5 1.5-1.3 1.9 1 .3 1.6.9 1.6 2 0 1.4-1.2 2.3-3.1 2.3h-4.3V54zm4.8 2.6c0-.5-.4-.7-1-.7h-1.5v1.5h1.4c.7-.1 1.1-.3 1.1-.8zm-.8 2.4h-1.8v1.5h1.8c.7 0 1.1-.3 1.1-.8s-.4-.7-1.1-.7zM46.82 54h3.9c1.3 0 2.1.3 2.7.9.5.5.7 1.1.7 1.9 0 1.3-.7 2.1-1.7 2.6l2 2.9h-2.6l-1.7-2.5h-1v2.5h-2.3V54zm3.8 4c.8 0 1.2-.4 1.2-1 0-.7-.5-1-1.2-1h-1.5v2h1.5z"/>
  <path fill="#fff" d="M56.82 54h2.2l3.5 8.4h-2.5l-.6-1.5h-3.2l-.6 1.5h-2.4l3.6-8.4zm2 5l-.9-2.3-.9 2.3h1.8zM62.82 54h2.3v8.3h-2.3V54zM65.72 54h2.1l3.4 4.4V54h2.3v8.3h-2l-3.5-4.5v4.6h-2.3V54zM73.72 61.1l1.3-1.5c.8.7 1.7 1 2.7 1 .6 0 1-.2 1-.6 0-.4-.3-.5-1.4-.8-1.8-.4-3.1-.9-3.1-2.6 0-1.5 1.2-2.7 3.2-2.7 1.4 0 2.5.4 3.4 1.1l-1.2 1.6c-.8-.5-1.6-.8-2.3-.8-.6 0-.8.2-.8.5 0 .4.3.5 1.4.8 1.9.4 3.1 1 3.1 2.6 0 1.7-1.3 2.7-3.4 2.7-1.5.1-2.9-.4-3.9-1.3z"/>
  <defs>
    <linearGradient id="jetbrains1" x1="31.86" x2="110.26" y1="120.56" y2="73.24" gradientUnits="userSpaceOnUse">
      <stop stop-color="#FCEE39"/>
      <stop offset="1" stop-color="#F37B3D"/>
    </linearGradient>
    <linearGradient id="jetbrains2" x1="48.38" x2="119.94" y1="6.91" y2="69.55" gradientUnits="userSpaceOnUse">
      <stop stop-color="#EF5A6B"/>
      <stop offset=".57" stop-color="#F26F4E"/>
      <stop offset="1" stop-color="#F37B3D"/>
    </linearGradient>
    <linearGradient id="jetbrains3" x1="52.97" x2="10.56" y1="63.64" y2="37.16" gradientUnits="userSpaceOnUse">
      <stop stop-color="#7C59A4"/>
      <stop offset=".39" stop-color="#AF4C92"/>
      <stop offset=".77" stop-color="#DC4183"/>
      <stop offset=".96" stop-color="#ED3D7D"/>
    </linearGradient>
    <linearGradient id="jetbrains4" x1="52.2" x2="10.79" y1="3.7" y2="37.9" gradientUnits="userSpaceOnUse">
      <stop stop-color="#EF5A6B"/>
      <stop offset=".36" stop-color="#EE4E72"/>
      <stop offset="1" stop-color="#ED3D7D"/>
    </linearGradient>
  </defs>
</svg>
